src/assets/icons/date.svg

<svg width="34" height="24" viewBox="0 0 34 24" fill="none" xmlns="http://www.w3.org/2000/svg">
<path d="M0.5 3C0.5 1.61929 1.61929 0.5 3 0.5H31C32.3807 0.5 33.5 1.61929 33.5 3V21C33.5 22.3807 32.3807 23.5 31 23.5H3C1.61929 23.5 0.5 22.3807 0.5 21V3Z" fill="#FDF4DC" stroke="#FAE7B9"/>
<path fill-rule="evenodd" clip-rule="evenodd" d="M12.9343 7.49537V6H14.3841V7.49537H19.6157V6H21.0655V7.49537H21.3804C22.7647 7.49537 22.9821 7.74383 23 8.95818V16.5003C23 17.562 22.9044 18 21.5991 18H12.4091C11.1037 18 11 17.6817 11 16.3927V9.10516C11.0175 8.08049 11.1167 7.49536 12.5006 7.49536L12.9343 7.49537ZM12.1602 16.1821C12.1602 16.5877 12.2825 16.6147 12.5481 16.6147H21.5007C21.7658 16.6147 21.8402 16.6084 21.8402 16.2021V10.1148C21.8328 9.80121 21.7311 9.74609 21.5249 9.74609H12.4534C12.247 9.74609 12.1574 9.79141 12.1602 10.0327L12.1602 16.1821Z" fill="#D9822F"/>
</svg>

<svg width="34" height="24" fill="none" xmlns="http://www.w3.org/2000/svg"><path d="M.5 3A2.5 2.5 0 013 .5h28A2.5 2.5 0 0133.5 3v18a2.5 2.5 0 01-2.5 2.5H3A2.5 2.5 0 01.5 21V3z" fill="#FDF4DC" stroke="#FAE7B9"/><path fill-rule="evenodd" clip-rule="evenodd" d="M12.934 7.495V6h1.45v1.495h5.232V6h1.45v1.495h.314c1.385 0 1.602.249 1.62 1.463V16.5c0 1.062-.096 1.5-1.4 1.5h-9.19c-1.306 0-1.41-.318-1.41-1.607V9.105c.018-1.025.117-1.61 1.5-1.61h.434zm-.774 8.687c0 .406.123.433.388.433h8.953c.265 0 .34-.007.34-.413v-6.087c-.008-.314-.11-.369-.316-.369h-9.072c-.206 0-.296.045-.293.287v6.15z" fill="#D9822F"/></svg>
